dist/img/telegram.svg

<svg width="30" height="31" viewBox="0 0 30 31" fill="none" xmlns="http://www.w3.org/2000/svg">
<path d="M29.6065 0.820445C29.184 0.418382 28.5016 0.381831 27.3317 0.783894C26.5192 1.0763 19.3049 4.1466 12.9354 7.10725C7.21591 9.77548 2.5688 12.1148 2.01635 12.4072C1.39891 12.6265 0.0665197 13.2844 0.0015253 14.3078C-0.0309719 14.9658 0.456486 15.5506 1.39891 16.0257C2.40632 16.6106 6.85844 18.2919 7.80085 18.6209C8.12583 19.8636 10.0432 27.1373 10.1407 27.5759C10.2706 28.2338 10.6606 28.5993 10.8556 28.7455C10.8881 28.7821 10.9531 28.8552 11.0181 28.8917C11.1156 28.9648 11.2456 29.0014 11.408 29.0014C11.6355 29.0014 11.8955 28.8917 12.123 28.709C13.3254 27.6125 15.4052 25.1635 15.9902 24.4691C18.5574 26.7352 21.3522 29.2573 21.6122 29.5497L21.6447 29.5862C22.2621 30.171 22.9121 30.5 23.497 30.5C23.692 30.5 23.887 30.4635 24.082 30.3903C24.7644 30.1345 25.2519 29.4035 25.4143 28.4166C25.4143 28.38 25.4468 28.2338 25.5118 27.978C26.6167 22.5684 27.4942 17.8167 28.2091 13.8327C28.8915 9.92169 29.444 6.08381 29.769 4.03695C29.834 3.52523 29.899 3.12317 29.9315 2.86731C30.0289 2.13629 30.0939 1.29561 29.6065 0.820445ZM8.4833 18.5112L23.9845 6.96104C24.017 6.92449 24.082 6.88794 24.1145 6.85139C24.1469 6.85139 24.1469 6.81484 24.1794 6.81484C24.2119 6.81484 24.2119 6.81484 24.2444 6.77829C24.2119 6.81484 24.1794 6.92449 24.1145 6.99759L20.1823 11.1279C17.4525 13.9423 13.8778 17.634 11.5055 20.0464C11.5055 20.0464 11.5055 20.0464 11.5055 20.0829L11.473 20.1195C11.473 20.1195 11.473 20.156 11.4405 20.156C11.4405 20.1926 11.4405 20.1926 11.408 20.2291V20.2657C11.408 20.2657 11.408 20.2657 11.408 20.3022C11.2456 22.3491 10.9531 25.858 10.8231 27.4297C10.8231 27.4297 10.8231 27.4297 10.8231 27.3931C10.6931 26.9545 8.87326 19.9733 8.4833 18.5112Z" fill="#F1EDF3"/>
</svg>

<svg width="30" height="31" fill="none" xmlns="http://www.w3.org/2000/svg"><path d="M29.607.82c-.423-.402-1.105-.438-2.275-.036-.813.292-8.027 3.363-14.397 6.323-5.72 2.668-10.366 5.008-10.919 5.3-.617.22-1.95.877-2.014 1.9-.033.659.454 1.244 1.397 1.719 1.007.585 5.46 2.266 6.402 2.595.325 1.243 2.242 8.516 2.34 8.955.13.658.52 1.023.715 1.17a.73.73 0 0 0 .162.146c.098.073.228.11.39.11.228 0 .488-.11.715-.293 1.202-1.096 3.282-3.546 3.867-4.24 2.567 2.266 5.362 4.788 5.622 5.08l.033.037c.617.585 1.267.914 1.852.914.195 0 .39-.037.585-.11.682-.256 1.17-.986 1.332-1.973 0-.037.033-.183.098-.439a592.043 592.043 0 0 0 2.697-14.145c.683-3.911 1.235-7.75 1.56-9.796.065-.512.13-.914.163-1.17.097-.73.162-1.571-.325-2.047ZM8.483 18.511l15.502-11.55c.032-.037.097-.073.13-.11.032 0 .032-.036.064-.036.033 0 .033 0 .065-.037-.032.037-.065.146-.13.22l-3.932 4.13c-2.73 2.814-6.304 6.506-8.676 8.918v.037l-.033.037s0 .036-.033.036c0 .037 0 .037-.032.073v.073c-.162 2.047-.455 5.556-.585 7.128v-.037c-.13-.439-1.95-7.42-2.34-8.882Z" fill="#F1EDF3"/></svg>
